X:1
T:Mazatlán, 87.87 D
T:Mazatlán, 87.87 D
T:John W. T. Givens &  Joseph M. Hunt, 1913
T:Public Domain Courtesy of the Cyber Hymnal™
C:John W. T. Givens &  Joseph M. Hunt, 1913
Z:Public Domain
Z:Courtesy of the Cyber Hymnal™
%%score ( 1 2 ) ( 3 4 )
L:1/8
Q:1/4=95
M:3/4
K:Ab
V:1 treble 
V:2 treble 
V:3 bass 
V:4 bass 
V:1
 [CE][DF] | [CA]3 E [DF][FA] | [DF]2 [CE] z [EA][EB] | [Ec]3 [EB] [CA][CA] | [EB]4 [Ec][DB] | %5
 [CA]3 E [DF][FA] | [DF]2 [CE] z [EA][EB] | [Ec]3 [EA] [EB][EB] | [EA]4 [Ac][Ae] | %9
 [Ae]3 [Ac] [Ae][Ac] | [GB]2 A z [Ac][Ae] | [Ae]3 [Ac] [Ae][Ac] | [GB]4 [Ac][GB] | %13
 [EA]3 E [DF][FA] | [DF]2 [CE] z [EA][EB] | [Ec]3 [EA] [EB][EB] | [EA]4 |] %17
V:2
 x2 | x3 E x2 | x6 | x6 | x6 | x3 E x2 | x6 | x6 | x6 | x6 | x2 A x3 | x6 | x6 | x3 E x2 | x6 | %15
 x6 | x4 |] %17
V:3
 [A,,A,][A,,A,] | [A,,A,]3 [C,A,] [D,A,][D,A,] | [A,,A,]2 [A,,A,] z [C,A,][E,G,] | %3
 A,3 [E,G,] [F,A,][F,A,] | [E,G,]4 [E,A,][E,G,] | [A,,A,]3 [C,A,] [D,A,][D,A,] | %6
 [A,,A,]2 [A,,A,] z [C,A,][E,G,] | A,3 [A,C] [E,D][E,D] | [A,,A,C]4 A,[A,C] | %9
 [A,C]3 [A,E] [A,C][A,E] | [E,D]2 [A,C] z A,[A,C] | [A,C]3 [A,E] [A,C][A,E] | [E,E]4 [E,E][E,D] | %13
 [A,C]3 [C,A,] [D,A,][D,A,] | [A,,A,]2 [A,,A,] z [C,A,][E,G,] | A,3 [A,C] [E,D][E,D] | [A,,A,C]4 |] %17
V:4
 x2 | x6 | x6 | A,3 x3 | x6 | x6 | x6 | A,3 x3 | x4 A, x | x6 | x4 A, x | x6 | x6 | x6 | x6 | %15
 A,3 x3 | x4 |] %17

